X:5
T:J'ai passe devant ta porte in G (from Larry Miller)
R:waltz
M:6/4
L:1/4
K:Gmix
%"3<"d"2>"c|:"2<"B2"1<"A "1>"G2A|B4 cB | A2G G2G  | A4 dc|B2G cc"3<"d|"3>"e4 dc |B2B A2A| G4 dc:|
"3<"d"2>"c|:"23<"[B2d2]"14<"[Aa] "14>"[G2g2][Aa]|"23<"[B4d4] "2>"cB | "14<"[A2a2][Gg] [G2g2][Gg] | "134<"[A4f4a4] \
dc|[B2d2]G cc"3<"d|"34>"[e4g4] dc |[B2d2]B [A2a2][Aa]| [G4g4] dc:|
